X:1
T:Veronika, der Lenz ist da
T:t.EINER GRUNER KAKTUS �
T:Veronika, der Lenz ist da
T:Walter Jurmann, Comedian Harmonists
T:Fritz Rotter
C:Walter Jurmann, Comedian Harmonists
Z:Fritz Rotter
%%score 1 { ( 2 3 5 ) | ( 4 6 ) }
L:1/8
Q:1/2=100
M:2/2
K:C
V:1 treble nm="Voice" snm="Vo."
V:2 treble nm="Piano" snm="Pno."
V:3 treble 
V:5 treble 
V:4 bass 
V:6 bass 
V:1
"C" c2 c2 e4 | B2 B2 d4 |"C" A2 A2 c2 c2 | G2 G2"Cm7b5" B4 |"G7" A4"Gm7b5" G4- |"G7" G4"B" B4 | %6
w: Mäd- chen lacht,|Jüng- ling spricht:|„Fräu- lein, woll’n se|o- der nicht,|drau- ßen|* ist|
w: Der Herr Sohn,|der Pa- pa|schwär- men für Ve-|ro- ni- ka,|das macht|_ der|
w: Der Ge- mahl|sucht voll Schneid|An- schluss an die|Stu- ben- maid.|Das macht|* der|
"C" A4 G4- |"G7" G6 z2 |"C" c2 c2 e4 | B2 B2 d4 | A2 A2 c2 c2 | G2 G2"A" A4 |"G" B4"Em" G4 | %13
w: Früh- ling!“|_|Der Po- et|Ot- to Licht|hält es jetzt für|sei- ne Pflicht,|er schreibt|
w: Früh- ling!|_|Je- der klopft|heim- lich an|je- der fragt sie|wo und wann|komm' ich|
w: Früh- ling!|_|Sei- ne Frau|schickt er weg,|dann ruft er das|Mäd- chen keck|und er-|
"D7" c2 B4 A2 |"G7" d8- |"Dm7" d6 c2 |:"Dm7" c6"G7" B2 | B6"Dm7" c2 |"G7" c2 B2 B4- | B6 B2 | %20
w: die- ses Ge-|dicht:|_ Ve-|ro- ni-|ka, der|Lenz ist da,|_ die|
w: end- lich mal|dran?|_ _|||||
w: klärt ihr den|Zweck:|_ _|||||
"C7" B6 A2 | A6 B2 | B2 A2 A4- | A6 E2 |"G7" G4 ^F4 |"Gm7b5" =F4 E4 |"G7" G4 D2 (D2 | D6) G2 | %28
w: Mäd- chen|sin- gen|tra- la- la|_ Die|gan- ze|Welt ist|wie ver- hext!|_ Ve-|
w: ||||||||
w: ||||||||
"C" A4 G4 |"Cm7b5" ^F4"C" G4 | A4 E2 E2- | E6 c2 |"Dm7" c6"G7" B2 | B6"D7" c2 | c2"G7" B2 B4- | %35
w: ro- ni-|ka, der|Spar- gel wächst!|_ _|ro- ni-|ka, die|Welt ist grün,|
w: |||||||
w: |||||||
 B6 B2 | B6 A2 | A6 B2 |"A7" B2 A2 A4- | A6 E2 |"Dm" F2 G2 A2 B2 |"F" c2 z4 c2 |"Em" B2 A2 G2 A2 | %43
w: _ drum|lass’ uns|in die|Wäl- der zieh’n!|_ So-|gar der Groß- pa-|pa sagt|zu der Groß- ma-|
w: ||||||||
w: ||||||||
"A" B2 z4 F2 |"Dm7" F2 G2 A2 B2 |"D" c4"G7" d4 |1"C" c4 z4 | z4 z2 c2 :|2 c4 z4 | z8 |] %50
w: ma: Ve-|ro- ni- ka, der|Lenz ist|da!“~||||
w: |||||||
w: |||||||
V:2
 c2 c2 e4 | B2 B2 d4 | A2 A2 c2 c2 | G2 G2 B4 | A4 G4- | G4 B4 | A4 G4- | G6 z2 | c2 c2 e4 | %9
 B2 B2 d4 | A2 A2 c2 c2 | G2 G2 A4 | B4 G4 | c2 B4 A2 | d8- | d6 c2 |: c6 B2 | B6 c2 | c2 B2 B4- | %19
 B6 B2 | B6 A2 | A6 B2 | B2 A2 A4- | A6 z2 | G4 ^F4 | =F4 E4 | G4 D2 D2- | D6 G2 | A4 G4 | ^F4 G4 | %30
 A4 E2 E2 | E6 c2 | c6 B2 | B6 c2 | c2 B2 B4- | B6 B2 |"C7""Cm""C7" B6"C6" A2 |"C7""Cm""C" A6 B2 | %38
 B2 A2 A4- | A6 E2 | F2 G2 A2 B2 | c2 z2 z2 c2 | B2 A2 G2 A2 | B2 z2 z2 F2 | F2 G2 A2 B2 | c4 d4 |1 %46
 c4"A7" B2 _B2 |"D7" A2 _A2"G7" G2 c2 :|2"C" c4"Ab7" _B2 A2 |"G" _A2"G7" G2"C" [Gc]2 z2 |] %50
V:3
 z2 [EG]2 z2 [EG]2 | z2 [EG]2 z2 [EG]2 | z2 [EG]2 z2 [EG]2 | z2 [CE]2 z2 [C^F]2 | %4
 z2 [B,=F]2 z2 [_B,E]2 | z2 [=B,F]2 z2 [B,^D]2 | z2 [CE]2 z2 ([CE]2 | %7
 [B,F]2)"A9" [GBe]2"Gb9" [_G_B_e]2"G9" [FAd]2 | z2 [EG]2 z2 [EG]2 | z2 [EG]2 z2 [EG]2 | %10
 z2 [EG]2 z2 [EG]2 | z2 [CE]2 z2 [^CG]2 | z2 [DG]2 z2 [B,E]2 | E2 D4 C2 | z2 [FB]2 [FB]2 [FA]2 | %15
 [FA]2"B7" [F_A]2"G7" [FG]2 z2 |: z2 [FA]2 [FG]2 z2 | z2 [FA]2 [FG]2 z2 | z2 [FG]2 z2 [FA]2 | %19
 [FA]2 [F_A]2 [FG]2 z2 | z2"Cm" [C_E]2"C7" [C=E]2"C6" z2 |"C7" z2"Cm6" [C_E]2"C6" [C=E]2"C7" z2 | %22
 z2"C6" [CE]2 z2 [C_E]2 | [C=E]2"B" [C_E]2"C" [C=E]2 z2 | z2 [B,F]2 z2 [B,D]2 | %25
 z2 [G,_B,]2 z2 [G,B,]2 | z2 [B,F]2 z2 [G,B,]2 | z2"Gm6" [G,_B,]2"G7" [G,=B,]2 z2 | %28
 z2 [CE]2 z2 [CE]2 | z2 [C^D]2 z2 [CE]2 | z2 [CE]2 z2 [G,C]2 | z2 [B,C]2 [A,C]2 z2 | %32
 z2 [FA]2 [FG]2 z2 | z2 [FA]2 [FG]2 z2 | z2 [FG]2 z2 [FA]2 | [FA]2 [F_A]2 [FG]2 z2 | %36
 z2 [C_E]2 [C=E]2 z2 | z2 [C_E]2 [C=E]2 z2 | z2 [^CG]2 z2 [CG]2 | z2 [^CG]2 z2 E2 | F2 G2 A2 B2 | %41
 F2 z2 z2 c2 | B2 A2 G2 A2 | ^C2 z2 z4 | [A,C]2 G2 A2 B2 | [D^F]4 [=FB]4 |1 z2 [EG]2 [^CG]4 | %47
 [C^F]4 [B,=F]2 z2 :|2 z2 [EG]2 [C_G]4 | [B,F]2 F2 E2 z2 |] %50
V:4
 C,2 z2 G,,2 z2 | C,2 z2 G,,2 z2 | C,2 z2 G,,2 z2 | E,2 z2 _E,4 | D,2 z2 G,,2 ^C,2 | %5
 D,2 z2 G,,2 z2 | C,2 z2 G,,2 z2 | D,2 ^C2 =C2 B,2 | C,2 z2 G,,2 z2 | C,2 z2 G,,2 z2 | %10
 C,2 z2 G,,2 z2 | E,4 _E,4 | D,2 z2 =E,2 z2 | A,,2 z2 D,2 z2 | z2 G,2 G,2 A,2 | A,2 _B,2 =B,2 z2 |: %16
 D,2 z2 G,,2 z2 | D,2 z2 G,,2 z2 | D,2 z2 G,,2 z2 | D,2 z2 G,,2 z2 | C,2 z2 G,,2 z2 | %21
 C,2 z2 G,,2 z2 | C,2 z2 G,,2 z2 | C,2 z2 G,,2 z2 | D,2 z2 G,,2 z2 | ^C,2 z2 G,,2 z2 | %26
 D,2 z2 G,,2 z2 | D,2 z2 G,,2 z2 | C,2 z2 G,,2 z2 | C,2 z2 G,,2 z2 | C,2 z2 G,,2 z2 | %31
 C,2 z2 G,,2 z2 | D,2 z2 G,,2 z2 | D,2 z2 G,,2 z2 | D,2 z2 G,,2 z2 | D,2 z2 G,,2 z2 | %36
 C,2 z2 G,,2 z2 | C,2 z2 G,,2 z2 | E,2 z2 A,,2 z2 | E,2 z2 A,,2 z2 | D,2 E,2 F,2 G,2 | %41
 A,2 z2 z2 A,2 | G,2 F,2 E,2 F,2 | [A,,E,]2 z4 z2 | D,2 z2 F,2 z2 | _A,4 G,4 |1 C,2 z2 E,4 | %47
 D,4 G,,2 z2 :|2 C,2 z2 _E,4 | D,2 G,,2 C,2 z2 |] %50
V:5
 x8 | x8 | x8 | x8 | x8 | x8 | x8 | x8 | x8 | x8 | x8 | x8 | x8 | ^F8 | x8 | x8 |: x8 | x8 | x8 | %19
 x8 | x8 | x8 | x8 | x8 | x8 | x8 | x8 | x8 | x8 | x8 | x8 | x8 | x8 | x8 | x8 | x8 | x8 | x8 | %38
 x8 | x8 | x8 | x8 | x8 | x8 | x8 | x8 |1 x8 | x8 :|2 x8 | x8 |] %50
V:6
 x8 | x8 | x8 | x8 | x8 | x8 | x8 | x8 | x8 | x8 | x8 | x8 | x8 | x8 | G,,8- | G,,6 x2 |: x8 | x8 | %18
 x8 | x8 | x8 | x8 | x8 | x8 | x8 | x8 | x8 | x8 | x8 | x8 | x8 | x8 | x8 | x8 | x8 | x8 | x8 | %37
 x8 | x8 | x8 | x8 | x8 | x8 | x8 | x8 | x8 |1 x8 | x8 :|2 x8 | x8 |] %50

